lib/brands/icons/askfm.svg

<svg xmlns="http://www.w3.org/2000/svg" fill="none" aria-hidden="true" viewBox="0 0 48 48"><g id="askfm-Icon"><rect id="bg" width="28" height="28" x="2" y="2" fill="#784589" rx="14"/><path id="askfm" fill="white" d="M20.2236 27.4075C19.865 27.4075 19.513 27.3726 19.1677 27.3029C18.8224 27.2332 18.5003 27.1319 18.2015 26.9991C17.8694 26.8464 17.5905 26.6621 17.3647 26.4463C17.1389 26.2305 16.9762 25.9864 16.8766 25.7142C16.7969 25.4685 16.7986 25.2377 16.8816 25.0219C16.9646 24.8061 17.1123 24.6517 17.3249 24.5587C17.5374 24.4657 17.725 24.4209 17.8877 24.4242C18.0504 24.4276 18.1865 24.4657 18.2961 24.5388C18.4057 24.6118 18.5003 24.6915 18.58 24.7778C18.673 24.8841 18.7693 24.9771 18.8689 25.0567C19.2806 25.3888 19.7388 25.5548 20.2435 25.5548C20.5025 25.5614 20.7499 25.5315 20.9857 25.4651C21.2214 25.3987 21.3459 25.2526 21.3592 25.0269C21.3592 24.8409 21.2878 24.7015 21.1451 24.6085C21.0023 24.5155 20.7881 24.4259 20.5025 24.3396L19.5462 24.0109C18.3575 23.6058 17.6337 23.1625 17.3747 22.6811C17.1157 22.1997 17.0127 21.7664 17.0659 21.3812V21.3713C17.0924 20.7537 17.4145 20.2291 18.0321 19.7975C18.6497 19.3658 19.4035 19.14 20.2934 19.1201C21.0039 19.1201 21.6182 19.233 22.1362 19.4588C22.6542 19.6846 23.0427 20.0066 23.3017 20.425C23.4744 20.6972 23.5341 20.9396 23.481 21.1521C23.4478 21.265 23.393 21.358 23.3166 21.431C23.2403 21.5041 23.1656 21.5605 23.0925 21.6004C22.8003 21.7464 22.5612 21.8195 22.3753 21.8195C22.2358 21.8195 22.1063 21.7863 21.9868 21.7199C21.8673 21.6535 21.7378 21.5705 21.5983 21.4709L21.5186 21.4111C21.1799 21.1654 20.8379 21.0425 20.4926 21.0425C20.1937 21.0425 19.9596 21.089 19.7903 21.182C19.621 21.275 19.5363 21.3995 19.5363 21.5555C19.5363 21.7116 19.6044 21.8344 19.7405 21.9241C19.8766 22.0137 20.0576 22.0918 20.2834 22.1582L21.5684 22.5665C22.4517 22.8388 23.0826 23.2505 23.4611 23.8017C23.6205 24.0407 23.7234 24.2615 23.7699 24.4641C23.8164 24.6666 23.8363 24.8243 23.8297 24.9372C23.8297 25.3224 23.7334 25.6727 23.5408 25.9881C23.3482 26.3035 23.066 26.5741 22.6941 26.7999C22.362 26.9925 21.9835 27.1419 21.5585 27.2481C21.1334 27.3544 20.6885 27.4075 20.2236 27.4075V27.4075ZM29.936 28.4135C29.9294 28.2342 29.9659 28.0998 30.0456 28.0101C30.1253 27.9205 30.2116 27.8624 30.3046 27.8358C30.464 27.776 30.6051 27.693 30.7279 27.5868C30.8508 27.4805 30.9454 27.3544 31.0118 27.2083C31.0783 27.0423 31.1314 26.8464 31.1712 26.6206C31.1911 26.5276 31.2044 26.438 31.2111 26.3516C31.2244 26.2985 31.231 26.2454 31.231 26.1923L31.2609 26.0329L31.3206 25.5747L31.3505 25.4153C31.3505 25.3622 31.3572 25.3091 31.3705 25.256L31.4003 25.0567C31.4003 25.0169 31.407 24.9771 31.4203 24.9372L31.4302 24.8376L31.5398 24.0607L31.5697 23.8017L31.6394 23.3435C31.6527 23.3236 31.6527 23.3136 31.6394 23.3136C31.6461 23.307 31.6361 23.3036 31.6095 23.3036H31.3007C31.1878 23.3036 31.1081 23.2538 31.0616 23.1542C31.0484 23.121 31.0417 23.0845 31.0417 23.0447C31.055 22.9052 31.0749 22.7658 31.1015 22.6263C31.1214 22.5466 31.1646 22.4869 31.231 22.447C31.2974 22.4072 31.3671 22.3839 31.4402 22.3773H31.7689C31.7822 22.3374 31.7888 22.3009 31.7888 22.2677C31.8021 22.1748 31.8187 22.0884 31.8386 22.0087C31.8851 21.7763 31.9681 21.5671 32.0877 21.3812C32.2404 21.1422 32.4363 20.9629 32.6754 20.8433L32.8547 20.7636C32.9145 20.7304 32.9809 20.7072 33.0539 20.6939C33.1469 20.6674 33.2664 20.6441 33.4125 20.6242C33.5719 20.6043 33.7213 20.5943 33.8608 20.5943H33.9505C34.07 20.601 34.1862 20.6142 34.2991 20.6342C34.3589 20.6408 34.412 20.6707 34.4585 20.7238C34.505 20.7769 34.5266 20.845 34.5232 20.928C34.5199 21.011 34.5083 21.099 34.4884 21.192C34.4817 21.2517 34.4718 21.3115 34.4585 21.3713L34.4485 21.4211C34.4419 21.4675 34.4186 21.5074 34.3788 21.5406C34.339 21.5738 34.2958 21.5904 34.2493 21.5904H33.9106C33.8641 21.5838 33.811 21.5804 33.7512 21.5804H33.6516C33.5653 21.5871 33.4756 21.6136 33.3827 21.6601C33.2565 21.7199 33.1602 21.8195 33.0938 21.9589C33.0407 22.0652 33.0041 22.2046 32.9842 22.3773H34.6079V22.3873H34.6179V22.3773H34.6278C34.7142 22.3839 34.7856 22.4171 34.842 22.4769C34.8985 22.5367 34.9267 22.613 34.9267 22.706C34.92 22.7392 34.9167 22.7724 34.9167 22.8056V22.8255C34.93 22.8122 34.94 22.8056 34.9466 22.8056L35.0562 22.706C35.1226 22.6529 35.1956 22.5998 35.2753 22.5466C35.355 22.4935 35.4414 22.4503 35.5343 22.4171C35.6605 22.3707 35.7834 22.3408 35.9029 22.3275C36.0224 22.3142 36.1254 22.3076 36.2117 22.3076C36.3445 22.3076 36.4143 22.3109 36.4209 22.3175C36.5471 22.3242 36.6799 22.364 36.8194 22.4371C36.9787 22.5234 37.1049 22.6529 37.1979 22.8255L37.2377 22.9251L37.2975 22.8654C37.3174 22.8388 37.344 22.8156 37.3772 22.7956C37.6893 22.5234 37.9915 22.364 38.2837 22.3175C38.3634 22.3042 38.4497 22.2976 38.5427 22.2976C38.6356 22.2976 38.7353 22.3042 38.8415 22.3175C39.0009 22.3374 39.147 22.3806 39.2798 22.447C39.4259 22.5267 39.5372 22.6429 39.6135 22.7956C39.6899 22.9484 39.7347 23.121 39.748 23.3136C39.7546 23.4796 39.7447 23.649 39.7181 23.8216V23.8515L39.6783 24.2001L39.6484 24.3694L39.6285 24.5189C39.6152 24.572 39.6052 24.6268 39.5986 24.6832C39.5919 24.7397 39.5886 24.7944 39.5886 24.8476L39.5488 25.0667L39.5289 25.2261L39.5089 25.3257L39.499 25.4353L39.4392 25.8536L39.3994 26.1923L39.3595 26.4114L39.2898 26.9692L39.2798 26.9891C39.2732 27.0688 39.2566 27.1452 39.23 27.2182C39.1902 27.3112 39.1238 27.371 39.0308 27.3975C38.9777 27.4108 38.9179 27.4174 38.8515 27.4174H38.3235C38.204 27.4174 38.121 27.3676 38.0745 27.268C38.0546 27.2149 38.0446 27.1751 38.0446 27.1485L38.0745 26.9194L38.0944 26.8298V26.7999C38.1077 26.7534 38.1143 26.7102 38.1143 26.6704C38.1276 26.6106 38.1343 26.5509 38.1343 26.4911C38.1542 26.3915 38.1675 26.2952 38.1741 26.2022C38.194 26.0827 38.2106 25.9632 38.2239 25.8436L38.2538 25.6644L38.3235 25.1364L38.3434 25.0169C38.3501 24.9173 38.3634 24.8243 38.3833 24.738C38.3966 24.6782 38.4032 24.6218 38.4032 24.5687C38.4231 24.4757 38.4364 24.3861 38.4431 24.2997L38.453 24.2798C38.4729 24.1071 38.4895 23.9312 38.5028 23.7519C38.5161 23.639 38.4962 23.5427 38.4431 23.463C38.3899 23.3833 38.3235 23.3368 38.2438 23.3236C38.1907 23.3103 38.1376 23.3036 38.0844 23.3036C38.0114 23.3036 37.9383 23.3169 37.8653 23.3435L37.8055 23.3734C37.6594 23.4331 37.5166 23.5361 37.3772 23.6822C37.3705 23.6954 37.3573 23.7087 37.3373 23.722C37.3174 23.7486 37.3041 23.7784 37.2975 23.8116L37.2477 24.2698L37.1481 24.9372C37.1481 24.9903 37.1448 25.0451 37.1381 25.1016C37.1315 25.158 37.1215 25.2128 37.1082 25.2659L37.0783 25.4851L37.0584 25.5946C37.0584 25.6544 37.0518 25.7075 37.0385 25.754L37.0186 25.9034C36.9987 26.0362 36.9821 26.1624 36.9688 26.2819L36.9389 26.511C36.9322 26.5907 36.919 26.6737 36.899 26.76C36.899 26.7866 36.8957 26.8165 36.8891 26.8497C36.8824 26.936 36.8692 27.0257 36.8492 27.1186C36.8027 27.3112 36.6865 27.4108 36.5006 27.4174H35.9228C35.7767 27.4174 35.6871 27.3544 35.6539 27.2282C35.6406 27.1817 35.6373 27.1286 35.6439 27.0688V27.0489C35.6572 27.0091 35.6638 26.9692 35.6638 26.9294L35.6837 26.8497L35.7435 26.3815C35.7568 26.2686 35.7734 26.1557 35.7933 26.0429L35.8132 25.8636L35.8929 25.3456L35.9627 24.8077L36.0324 24.3794C36.0324 24.3196 36.039 24.2665 36.0523 24.22C36.0855 24.0275 36.0955 23.8382 36.0822 23.6523C36.0756 23.4995 36.0158 23.3999 35.9029 23.3534C35.8298 23.3202 35.7568 23.3036 35.6837 23.3036L35.5941 23.3136C35.4414 23.3402 35.3085 23.395 35.1956 23.478C35.0827 23.561 34.9831 23.649 34.8968 23.7419C34.8769 23.7618 34.8636 23.7884 34.857 23.8216L34.847 23.9511C34.8337 24.0042 34.8271 24.0573 34.8271 24.1105L34.7673 24.4491V24.489L34.7474 24.5985L34.7275 24.7778C34.7208 24.8708 34.7075 24.9638 34.6876 25.0567C34.6743 25.1763 34.6577 25.2958 34.6378 25.4153L34.6179 25.5847L34.4485 26.77C34.4352 26.8895 34.4153 27.0124 34.3888 27.1385C34.3755 27.205 34.3473 27.2614 34.3041 27.3079C34.2609 27.3544 34.2095 27.3842 34.1497 27.3975C34.1098 27.4108 34.0634 27.4174 34.0102 27.4174H33.4424C33.3162 27.4174 33.2366 27.361 33.2034 27.2481C33.1901 27.1884 33.1868 27.1219 33.1934 27.0489C33.1934 27.0024 33.2 26.9593 33.2133 26.9194L33.2233 26.8497C33.2498 26.6704 33.2731 26.4977 33.293 26.3317C33.3063 26.2786 33.3129 26.2255 33.3129 26.1724L33.3428 25.9931C33.3428 25.9333 33.3495 25.8768 33.3627 25.8237C33.376 25.7706 33.3827 25.7208 33.3827 25.6743L33.4125 25.505C33.4125 25.4585 33.4192 25.4054 33.4325 25.3456L33.562 24.3894L33.6018 24.1404L33.6317 23.9113C33.645 23.8581 33.6516 23.8017 33.6516 23.7419C33.6649 23.6954 33.6715 23.6423 33.6715 23.5825L33.7213 23.3036H32.8946C32.8746 23.3036 32.8613 23.3169 32.8547 23.3435L32.8149 23.5925L32.8049 23.6921C32.7983 23.7054 32.7949 23.722 32.7949 23.7419L32.775 23.8415C32.775 23.9013 32.7684 23.9577 32.7551 24.0109C32.7484 24.1038 32.7352 24.2001 32.7152 24.2997L32.6555 24.748L32.6256 24.9173C32.6256 24.9771 32.6189 25.0335 32.6057 25.0866C32.5924 25.1398 32.5857 25.1962 32.5857 25.256L32.5559 25.4153L32.4662 26.0429L32.3865 26.6704C32.2139 27.6465 31.9416 28.2591 31.5697 28.5082C31.1978 28.7572 30.8857 28.8784 30.6333 28.8717C30.4938 28.8916 30.361 28.875 30.2349 28.8219C30.1618 28.7954 30.0971 28.7489 30.0406 28.6825C29.9842 28.6161 29.9493 28.5264 29.936 28.4135V28.4135ZM15.223 19.2098C14.6519 19.2363 14.3049 19.3874 14.182 19.663C14.0592 19.9386 14.011 20.1859 14.0376 20.4051V20.5744L13.9778 20.415C13.9778 20.4084 13.9446 20.3553 13.8782 20.2556C13.8118 20.156 13.6989 20.0398 13.5395 19.907C13.3934 19.7808 13.1743 19.6646 12.8821 19.5584C12.5899 19.4521 12.2146 19.3957 11.7564 19.3891C10.747 19.4156 9.91522 19.7941 9.26108 20.5246C8.60695 21.255 8.26992 22.1847 8.25 23.3136C8.26992 24.4823 8.59035 25.4369 9.21128 26.1773C9.83221 26.9177 10.6341 27.3012 11.617 27.3278H11.7465C12.2645 27.3012 12.7326 27.1784 13.151 26.9593C13.503 26.7733 13.7786 26.521 13.9778 26.2022L14.0376 26.0927V26.3018C14.0243 26.5542 14.0907 26.7982 14.2368 27.034C14.3829 27.2697 14.7116 27.3942 15.223 27.4075C15.7277 27.4075 16.0697 27.2249 16.249 26.8596C16.3221 26.7069 16.3652 26.5558 16.3785 26.4064C16.3918 26.257 16.3984 26.1391 16.3984 26.0528V20.8633C16.425 20.5047 16.3769 20.1461 16.254 19.7875C16.1311 19.4289 15.7875 19.2363 15.223 19.2098V19.2098ZM12.1549 25.1862C11.6967 25.1796 11.343 25.0169 11.094 24.6982C10.8449 24.3794 10.7204 23.9611 10.7204 23.4431C10.7204 22.8388 10.8449 22.3972 11.094 22.1183C11.343 21.8394 11.6967 21.7033 12.1549 21.7099C12.5666 21.7033 12.892 21.8344 13.1311 22.1034C13.3702 22.3723 13.493 22.8189 13.4997 23.4431C13.493 23.9677 13.3702 24.3877 13.1311 24.7031C12.892 25.0186 12.5666 25.1796 12.1549 25.1862V25.1862ZM25.4633 27.4075C24.9188 27.3809 24.5817 27.205 24.4522 26.8796C24.3227 26.5542 24.2646 26.2288 24.2779 25.9034V20.664C24.2646 20.332 24.3227 19.9983 24.4522 19.663C24.5817 19.3276 24.9188 19.1467 25.4633 19.1201C25.8751 19.1201 26.1772 19.2197 26.3698 19.4189C26.5093 19.5717 26.5923 19.7427 26.6189 19.9319C26.6454 20.1212 26.6554 20.2922 26.6487 20.4449C26.6421 20.4847 26.6388 20.5213 26.6388 20.5545V21.5904L28.123 19.907C28.2226 19.7941 28.3156 19.7012 28.4019 19.6281C28.6742 19.3891 28.9332 19.2695 29.1789 19.2695C29.3782 19.2695 29.5807 19.3393 29.7866 19.4787C29.8729 19.5385 29.946 19.5982 30.0057 19.658C30.2448 19.9303 30.3444 20.1942 30.3046 20.4499C30.2647 20.7055 30.1552 20.9197 29.9759 21.0924L28.3521 22.8355L30.3644 25.7341C30.5304 25.9665 30.5968 26.2172 30.5636 26.4861C30.5304 26.7551 30.4009 26.9858 30.1751 27.1784C29.9825 27.3311 29.7567 27.4075 29.4977 27.4075H29.4579C29.2786 27.4008 29.1109 27.3527 28.9548 27.2631C28.7987 27.1734 28.6676 27.0522 28.5613 26.8995L26.6388 24.0706V25.8835C26.6587 26.2686 26.5989 26.6139 26.4595 26.9194C26.32 27.2249 25.988 27.3876 25.4633 27.4075V27.4075Z"/></g></svg>

<svg xmlns="http://www.w3.org/2000/svg" fill="none" aria-hidden="true" viewBox="0 0 48 48"><rect width="28" height="28" x="2" y="2" fill="#784589" rx="14"/><path fill="#fff" d="M20.224 27.407c-.359 0-.711-.034-1.056-.104a4.624 4.624 0 0 1-.966-.304 3.03 3.03 0 0 1-.837-.553 1.918 1.918 0 0 1-.488-.732 1.01 1.01 0 0 1 .005-.692.801.801 0 0 1 .443-.463c.212-.093.4-.138.563-.135a.75.75 0 0 1 .408.115c.11.073.204.152.284.239.093.106.19.2.289.279.412.332.87.498 1.375.498a2.49 2.49 0 0 0 .742-.09c.235-.066.36-.212.373-.438a.466.466 0 0 0-.214-.419c-.143-.093-.357-.182-.642-.268l-.957-.33c-1.188-.404-1.912-.848-2.171-1.329-.26-.481-.362-.915-.31-1.3v-.01c.027-.617.35-1.142.967-1.573.618-.432 1.372-.658 2.261-.678.71 0 1.325.113 1.843.339.518.226.907.548 1.166.966.172.272.232.515.179.727a.618.618 0 0 1-.164.279c-.077.073-.151.13-.224.17-.293.145-.532.219-.718.219a.787.787 0 0 1-.388-.1 4.126 4.126 0 0 1-.389-.25l-.08-.059c-.338-.246-.68-.369-1.025-.369-.3 0-.533.047-.703.14-.169.093-.254.218-.254.373a.42.42 0 0 0 .204.37c.137.089.318.167.543.233l1.285.409c.884.272 1.515.683 1.893 1.235.16.239.262.46.309.662.046.203.066.36.06.473 0 .385-.097.736-.29 1.051a2.46 2.46 0 0 1-.846.812c-.332.192-.71.342-1.136.448-.425.106-.87.16-1.334.16Zm9.712 1.006c-.007-.179.03-.313.11-.403a.554.554 0 0 1 .259-.174c.159-.06.3-.143.423-.25.123-.105.217-.232.284-.378a2.98 2.98 0 0 0 .16-.587 2.04 2.04 0 0 0 .04-.27.653.653 0 0 0 .019-.159l.03-.16.06-.457.03-.16c0-.053.006-.106.02-.159l.03-.2c0-.04.006-.079.02-.119l.01-.1.109-.776.03-.26.07-.457c.013-.02.013-.03 0-.03.006-.007-.004-.01-.03-.01h-.31a.244.244 0 0 1-.238-.15.294.294 0 0 1-.02-.11c.013-.139.033-.278.06-.418.02-.08.063-.14.129-.179a.488.488 0 0 1 .21-.07h.328a.349.349 0 0 0 .02-.11c.013-.092.03-.179.05-.258a1.8 1.8 0 0 1 .249-.628 1.47 1.47 0 0 1 .587-.538l.18-.08a.646.646 0 0 1 .199-.07c.093-.026.212-.049.358-.069.16-.02.31-.03.449-.03h.09c.119.007.235.02.348.04a.25.25 0 0 1 .16.09.28.28 0 0 1 .064.204 1.561 1.561 0 0 1-.035.264c-.006.06-.016.12-.03.18l-.01.05a.187.187 0 0 1-.07.119.198.198 0 0 1-.129.05h-.338c-.047-.007-.1-.01-.16-.01h-.1a.728.728 0 0 0-.268.08.604.604 0 0 0-.29.298 1.303 1.303 0 0 0-.109.418h1.624v.01h.01v-.01h.01c.086.007.158.04.214.1a.32.32 0 0 1 .085.229.502.502 0 0 0-.01.1v.02c.013-.014.023-.02.03-.02l.11-.1c.066-.053.139-.106.218-.16.08-.052.166-.096.26-.129.126-.046.248-.076.368-.09.12-.013.222-.02.309-.02a.98.98 0 0 1 .209.01.973.973 0 0 1 .398.12.93.93 0 0 1 .379.389l.04.1.06-.06a.275.275 0 0 1 .08-.07c.311-.273.614-.432.906-.479.08-.013.166-.02.259-.02s.192.007.299.02c.159.02.305.064.438.13.146.08.257.196.334.349.076.152.12.325.134.518a2.58 2.58 0 0 1-.03.508v.03l-.04.348-.03.17-.02.149a1.296 1.296 0 0 0-.04.329l-.04.219-.02.16-.02.099-.009.11-.06.418-.04.338-.04.22-.07.557-.01.02a.878.878 0 0 1-.049.23.298.298 0 0 1-.2.178.74.74 0 0 1-.178.02h-.528c-.12 0-.203-.05-.25-.149a.382.382 0 0 1-.03-.12l.03-.229.02-.09v-.03a.473.473 0 0 0 .02-.129c.014-.06.02-.12.02-.179.02-.1.033-.196.04-.289.02-.12.037-.239.05-.358l.03-.18.07-.528.02-.12c.006-.099.02-.192.04-.278a.78.78 0 0 0 .02-.17 2.04 2.04 0 0 0 .04-.268l.009-.02c.02-.173.036-.349.05-.528a.417.417 0 0 0-.06-.289.295.295 0 0 0-.2-.14.654.654 0 0 0-.378.02l-.06.03c-.146.06-.288.163-.428.31a.114.114 0 0 1-.04.039.219.219 0 0 0-.04.09l-.05.458-.099.667a1.396 1.396 0 0 1-.04.329l-.03.22-.02.109a.58.58 0 0 1-.02.159l-.02.15c-.02.132-.036.258-.05.378l-.03.229c-.006.08-.019.163-.039.249a.465.465 0 0 1-.01.09c-.007.086-.02.176-.04.269-.046.192-.162.292-.348.298h-.578c-.146 0-.236-.063-.27-.189a.413.413 0 0 1-.01-.16v-.02a.35.35 0 0 0 .02-.119l.02-.08.06-.468c.014-.112.03-.225.05-.338l.02-.18.08-.517.07-.538.07-.429a.58.58 0 0 1 .02-.159c.033-.192.043-.382.03-.568-.007-.152-.067-.252-.18-.299a.526.526 0 0 0-.22-.05l-.089.01a.932.932 0 0 0-.398.165 2.12 2.12 0 0 0-.3.264.151.151 0 0 0-.039.08l-.01.13a.654.654 0 0 0-.02.158l-.06.34v.039l-.02.11-.02.179c-.006.093-.02.186-.04.279a6.16 6.16 0 0 1-.05.358l-.02.17-.168 1.185a3.88 3.88 0 0 1-.06.369.342.342 0 0 1-.085.169.294.294 0 0 1-.154.09.441.441 0 0 1-.14.02h-.568c-.126 0-.205-.057-.239-.17a.648.648 0 0 1-.01-.2c0-.046.007-.089.02-.129l.01-.07c.027-.179.05-.351.07-.517a.653.653 0 0 0 .02-.16l.03-.179a.7.7 0 0 1 .02-.17.617.617 0 0 0 .02-.149l.03-.169c0-.046.006-.1.02-.16l.129-.956.04-.249.03-.229a.696.696 0 0 0 .02-.17.58.58 0 0 0 .02-.159l.05-.278h-.827c-.02 0-.034.013-.04.04l-.04.248-.01.1a.112.112 0 0 0-.01.05l-.02.1c0 .06-.007.116-.02.169-.007.093-.02.19-.04.289l-.06.448-.03.17a.7.7 0 0 1-.02.169.696.696 0 0 0-.02.169l-.03.16-.089.627-.08.627c-.172.976-.444 1.59-.816 1.838-.372.25-.684.37-.937.364a.739.739 0 0 1-.398-.05.46.46 0 0 1-.299-.409ZM15.223 19.21c-.571.026-.918.177-1.041.453-.123.276-.171.523-.144.742v.17l-.06-.16c0-.007-.033-.06-.1-.16a1.828 1.828 0 0 0-.338-.348c-.147-.126-.366-.242-.658-.349-.292-.106-.667-.162-1.126-.169-1.009.027-1.84.405-2.495 1.136-.654.73-.991 1.66-1.011 2.789.02 1.168.34 2.123.961 2.863.621.74 1.423 1.124 2.406 1.15h.13a3.35 3.35 0 0 0 1.404-.368 2.12 2.12 0 0 0 .827-.757l.06-.11v.21c-.014.252.053.496.199.732.146.236.475.36.986.373.505 0 .847-.182 1.026-.547a1.34 1.34 0 0 0 .13-.454c.013-.149.02-.267.02-.353v-5.19a2.678 2.678 0 0 0-.145-1.075c-.123-.36-.467-.552-1.031-.578Zm-3.068 5.976c-.458-.006-.812-.17-1.061-.488-.25-.319-.374-.737-.374-1.255 0-.604.125-1.046.374-1.325.249-.279.603-.415 1.06-.408.413-.007.738.124.977.393.24.27.362.716.369 1.34-.007.525-.13.945-.369 1.26-.239.316-.564.477-.976.483Zm13.308 2.221c-.544-.026-.881-.202-1.01-.527a2.357 2.357 0 0 1-.175-.977v-5.239a2.481 2.481 0 0 1 .174-1.001c.13-.335.467-.516 1.011-.543.412 0 .714.1.907.299.14.153.222.324.249.513.026.19.036.36.03.513a.675.675 0 0 0-.01.11v1.035l1.484-1.683c.1-.113.193-.206.279-.279.272-.239.531-.358.777-.358.2 0 .402.07.608.209.086.06.159.12.219.179.239.272.338.536.299.792-.04.256-.15.47-.33.642l-1.623 1.744 2.012 2.898c.166.232.233.483.2.752a1.06 1.06 0 0 1-.389.692c-.192.153-.418.23-.677.23h-.04a1.077 1.077 0 0 1-.503-.145 1.21 1.21 0 0 1-.394-.364l-1.922-2.828v1.813c.02.385-.04.73-.18 1.035-.139.306-.471.469-.996.488Z"/></svg>
